src/images/icons/phone.svg

<svg width="20" height="20" viewBox="0 0 20 20" fill="none" xmlns="http://www.w3.org/2000/svg">
<path d="M2.91049 0.00151812C2.58852 0.0167874 2.27237 0.1537 2.04052 0.408584L0.418948 2.19115C0.421215 2.18586 0.412598 2.18663 0.366654 2.25164C0.342162 2.28518 0.32313 2.32237 0.310263 2.36186C-0.349779 4.46434 0.0926833 6.77711 1.17049 8.9768C2.24833 11.1765 3.96757 13.2815 5.94139 15.0089C7.91521 16.7362 10.1423 18.0877 12.2657 18.758C14.3891 19.4283 16.448 19.4195 17.9738 18.3125C17.9903 18.3002 18.0059 18.2867 18.0204 18.272C18.0604 18.232 18.0617 18.2269 18.0553 18.233L18.0614 18.2253L19.6753 16.4504C20.139 15.9406 20.1016 15.1393 19.5917 14.6755L15.7631 11.1935C15.2533 10.7298 14.452 10.7668 13.9882 11.2766L12.2559 13.1816C10.8498 12.7744 9.64759 12.0842 8.49143 11.0325C7.33505 9.98063 6.53394 8.8486 5.99573 7.48683L7.72751 5.5818C8.19127 5.07198 8.15437 4.27066 7.64446 3.80691L3.81587 0.324915C3.56096 0.0930402 3.23298 -0.0138132 2.91097 0.00142585L2.91049 0.00151812ZM2.94689 0.782823C3.06549 0.777532 3.18616 0.818735 3.28473 0.908431L7.11332 4.39043C7.31056 4.5698 7.32396 4.85614 7.1446 5.05332L5.23026 7.1573C5.18214 7.21046 5.14945 7.27576 5.13572 7.34614C5.12198 7.41652 5.12773 7.48933 5.15234 7.55669C5.73333 9.1422 6.67057 10.4429 7.96023 11.616C9.24988 12.789 10.6323 13.5995 12.2656 14.0281C12.3352 14.0463 12.4084 14.0452 12.4774 14.0248C12.5464 14.0043 12.6084 13.9654 12.6568 13.9122L14.5716 11.8077C14.7509 11.6106 15.0368 11.5975 15.234 11.7769L19.0631 15.2589C19.2603 15.4383 19.2732 15.7241 19.0938 15.9213L17.4933 17.6807C16.2412 18.5795 14.4773 18.6299 12.502 18.0063C10.5189 17.3803 8.36609 16.0836 6.46068 14.416C4.55527 12.7485 2.89711 10.7121 1.87792 8.63214C0.869241 6.5735 0.503307 4.49235 1.05814 2.65799L2.62181 0.939504C2.71148 0.840926 2.82824 0.788134 2.94684 0.782615L2.94689 0.782823Z" fill="#FF6B09"/>
</svg>

<svg width="20" height="20" fill="none" xmlns="http://www.w3.org/2000/svg"><path d="M2.91.002a1.252 1.252 0 0 0-.87.407L.42 2.19c.002-.005-.006-.004-.052.06a.394.394 0 0 0-.057.11c-.66 2.103-.217 4.416.86 6.616 1.078 2.2 2.798 4.304 4.771 6.032 1.974 1.727 4.201 3.079 6.325 3.749 2.123.67 4.182.662 5.708-.445a.407.407 0 0 0 .046-.041c.04-.04.042-.045.035-.039l.006-.008 1.614-1.775a1.263 1.263 0 0 0-.083-1.774l-3.829-3.482a1.263 1.263 0 0 0-1.775.083l-1.732 1.905c-1.406-.408-2.608-1.098-3.765-2.15C7.335 9.982 6.534 8.85 5.996 7.488l1.732-1.905a1.262 1.262 0 0 0-.084-1.775L3.816.325A1.253 1.253 0 0 0 2.91 0Zm.037.78a.469.469 0 0 1 .338.126L7.113 4.39a.46.46 0 0 1 .032.663L5.23 7.157a.394.394 0 0 0-.078.4c.581 1.585 1.519 2.886 2.808 4.059 1.29 1.173 2.672 1.984 4.306 2.412a.395.395 0 0 0 .39-.116l1.916-2.104a.46.46 0 0 1 .662-.031l3.83 3.482a.46.46 0 0 1 .03.662l-1.6 1.76c-1.253.898-3.017.949-4.992.325-1.983-.626-4.136-1.922-6.041-3.59-1.906-1.668-3.564-3.704-4.583-5.784-1.009-2.058-1.375-4.14-.82-5.974L2.622.94a.468.468 0 0 1 .325-.157Z" fill="#FF6B09"/></svg>
